X:508
T: S HAT SICH EIN KUCKUK ZU TOD GESCHRIEN
N: E0482
O: Europa, Mitteleuropa, Deutschland, Kuhlaendchen
R: Liebes - Lied
M: 2/4
L: 1/8
K: G
D | GGBB | GGD
D | GGBB | G2D
d | ddBG | eed
d | ccBB | A2G

@@@ Tune index: 4158
